X: 10612
T: The BEGGAR GIRL
Q: "Andante"
%R: jig
B: "Edinburgh Repository of Music" v.1 p.61 #2
F: http://digital.nls.uk/special-collections-of-printed-music/pageturner.cfm?id=87776133
Z: 2015 John Chambers <jc:trillian.mit.edu>
M: 6/8
L: 1/8
K: G
|:\
d>cB d>cB | A>GA B>cd |\
d>cB d>cB | AGA G3 :|\
|:\
DGB DAc | DcB A>GA |
DG=F E2c/c/ | BAG Hd2z |\
d>cB d>cB | A>GA B>cd |\
d>cB e>fHg | B>cA G3 :|

%%sep 2 1 500
%%sep 1 1 500

